16x16/panel/si-syncthing-2.svg

<svg xmlns="http://www.w3.org/2000/svg" width="16" height="16" version="1.1">
 <defs>
  <style id="current-color-scheme" type="text/css">
   .ColorScheme-Text { color:#323a41; } .ColorScheme-Highlight { color:#4285f4; } .ColorScheme-NeutralText { color:#ff9800; } .ColorScheme-PositiveText { color:#4caf50; } .ColorScheme-NegativeText { color:#f44336; }
  </style>
 </defs>
 <path style="fill:currentColor" class="ColorScheme-Text" d="M 11.5,1.9378222 A 7,7 0 0 0 1.9378222,4.5 7,7 0 0 0 4.5,14.062178 7,7 0 0 0 14.062178,11.5 7,7 0 0 0 11.5,1.9378222 Z m -1,1.7320508 a 5,5 0 0 1 2.222308,5.9672553 1.5,1.5 0 0 1 0.223844,1.7958847 1.5,1.5 0 0 1 -1.979426,0.584717 5,5 0 0 1 -3.5290736,0.948472 1.5,1.5 0 0 1 -2.0046397,0.47995 A 1.5,1.5 0 0 1 4.7299018,11.777257 5,5 0 0 1 3.669873,5.5 5,5 0 0 1 3.7145332,5.4265525 1.5,1.5 0 0 1 3.5538476,3.7009619 1.5,1.5 0 0 1 5.6028857,3.1519238 1.5,1.5 0 0 1 5.9608621,3.4420467 5,5 0 0 1 10.5,3.669873 Z M 10,4.5358984 A 4,4 0 0 0 6.3501948,4.3614526 1.5,1.5 0 0 1 6.1519238,5.2009619 1.5,1.5 0 0 1 6.1182675,5.2514439 L 7.7011833,7.2636595 A 1.5,1.5 0 0 1 8.9330127,7.3839746 1.5,1.5 0 0 1 9.6559353,8.9560547 L 10.674192,9.5439455 A 1.5,1.5 0 0 1 11.811693,9.1948296 4,4 0 0 0 10,4.5358984 Z M 5.3330237,5.8693385 A 1.5,1.5 0 0 1 4.5842032,5.9241461 4,4 0 0 0 4.5358984,6 4,4 0 0 0 5.2937237,10.941314 1.5,1.5 0 0 1 6.4560545,10.674192 L 7.0439453,9.6559353 A 1.5,1.5 0 0 1 6.8839746,7.9330127 1.5,1.5 0 0 1 6.9176309,7.8825306 L 5.3330237,5.8693385 Z M 9.1559353,9.8220801 A 1.5,1.5 0 0 1 7.9099707,10.155935 l -0.5878908,1.018257 a 1.5,1.5 0 0 1 0.3479206,0.80754 4,4 0 0 0 2.6039855,-0.697736 1.5,1.5 0 0 1 -0.09979,-0.874025 L 9.1559353,9.8220801 Z"/>
</svg>

<svg xmlns="http://www.w3.org/2000/svg" width="16" height="16"><defs><style id="current-color-scheme" type="text/css"></style></defs><path d="M11.5 1.938A7 7 0 0 0 1.938 4.5 7 7 0 0 0 4.5 14.062a7 7 0 0 0 9.562-2.562A7 7 0 0 0 11.5 1.938zm-1 1.732a5 5 0 0 1 2.222 5.967 1.5 1.5 0 0 1 .224 1.796 1.5 1.5 0 0 1-1.98.585 5 5 0 0 1-3.528.948 1.5 1.5 0 0 1-2.005.48 1.5 1.5 0 0 1-.703-1.669A5 5 0 0 1 3.67 5.5a5 5 0 0 1 .045-.073A1.5 1.5 0 0 1 3.554 3.7a1.5 1.5 0 0 1 2.049-.55 1.5 1.5 0 0 1 .358.291 5 5 0 0 1 4.539.228zm-.5.866a4 4 0 0 0-3.65-.175 1.5 1.5 0 0 1-.198.84 1.5 1.5 0 0 1-.034.05l1.583 2.013a1.5 1.5 0 0 1 1.232.12 1.5 1.5 0 0 1 .723 1.572l1.018.588a1.5 1.5 0 0 1 1.138-.35A4 4 0 0 0 10 4.537zM5.333 5.869a1.5 1.5 0 0 1-.749.055A4 4 0 0 0 4.536 6a4 4 0 0 0 .758 4.941 1.5 1.5 0 0 1 1.162-.267l.588-1.018a1.5 1.5 0 0 1-.16-1.723 1.5 1.5 0 0 1 .034-.05L5.333 5.869zm3.823 3.953a1.5 1.5 0 0 1-1.246.334l-.588 1.018a1.5 1.5 0 0 1 .348.808 4 4 0 0 0 2.604-.698 1.5 1.5 0 0 1-.1-.874l-1.018-.588z" fill="currentColor" color="#d3dae3"/></svg>
